lib/functional/brands/slack-logo.svg

<svg xmlns="http://www.w3.org/2000/svg" fill="none" stroke="currentColor" aria-hidden="true" viewBox="0 0 32 32"><g id="Icon-SlackLogo"><g clip-path="url(#clip0_11_3456)"><g id="size=md (32px)"><path id="Vector" stroke-linecap="round" stroke-linejoin="round" stroke-width="2" d="M16 13V16H7C6.20435 16 5.44129 15.6839 4.87868 15.1213C4.31607 14.5587 4 13.7956 4 13C4 12.2044 4.31607 11.4413 4.87868 10.8787C5.44129 10.3161 6.20435 10 7 10H13C13.7956 10 14.5587 10.3161 15.1213 10.8787C15.6839 11.4413 16 12.2044 16 13V13Z"/><path id="Vector_2" stroke-linecap="round" stroke-linejoin="round" stroke-width="2" d="M16 10H13C12.6056 10.0017 12.2147 9.92521 11.85 9.77503C11.4853 9.62486 11.1539 9.40394 10.875 9.12503C10.5961 8.84613 10.3752 8.51475 10.225 8.15003C10.0748 7.78531 9.99837 7.39445 10 7.00003V7.00003C9.99837 6.6056 10.0748 6.21475 10.225 5.85002C10.3752 5.4853 10.5961 5.15392 10.875 4.87502C11.1539 4.59611 11.4853 4.3752 11.85 4.22502C12.2147 4.07484 12.6056 3.99837 13 4.00003V4.00003C13.3945 3.99837 13.7853 4.07484 14.15 4.22502C14.5148 4.3752 14.8461 4.59611 15.125 4.87502C15.4039 5.15392 15.6249 5.4853 15.775 5.85002C15.9252 6.21475 16.0017 6.6056 16 7.00003V10Z"/><path id="Vector_3" stroke-linecap="round" stroke-linejoin="round" stroke-width="2" d="M19 16H16V7C16 6.20435 16.3161 5.44129 16.8787 4.87868C17.4413 4.31607 18.2044 4 19 4C19.7956 4 20.5587 4.31607 21.1213 4.87868C21.6839 5.44129 22 6.20435 22 7V13C22 13.7956 21.6839 14.5587 21.1213 15.1213C20.5587 15.6839 19.7956 16 19 16V16Z"/><path id="Vector_4" stroke-linecap="round" stroke-linejoin="round" stroke-width="2" d="M22 16V13C21.9984 12.6056 22.0748 12.2147 22.225 11.85C22.3752 11.4853 22.5961 11.1539 22.875 10.875C23.1539 10.5961 23.4853 10.3752 23.85 10.225C24.2147 10.0748 24.6056 9.99837 25 10V10C25.3945 9.99837 25.7853 10.0748 26.15 10.225C26.5148 10.3752 26.8461 10.5961 27.125 10.875C27.4039 11.1539 27.6249 11.4853 27.775 11.85C27.9252 12.2147 28.0017 12.6056 28 13V13C28.0017 13.3945 27.9252 13.7853 27.775 14.15C27.6249 14.5148 27.4039 14.8461 27.125 15.125C26.8461 15.4039 26.5148 15.6249 26.15 15.775C25.7853 15.9252 25.3945 16.0017 25 16H22Z"/><path id="Vector_5" stroke-linecap="round" stroke-linejoin="round" stroke-width="2" d="M16 19V16H25C25.7956 16 26.5587 16.3161 27.1213 16.8787C27.6839 17.4413 28 18.2044 28 19V19C28 19.7956 27.6839 20.5587 27.1213 21.1213C26.5587 21.6839 25.7956 22 25 22H19C18.2044 22 17.4413 21.6839 16.8787 21.1213C16.3161 20.5587 16 19.7956 16 19Z"/><path id="Vector_6" stroke-linecap="round" stroke-linejoin="round" stroke-width="2" d="M16 22H19C19.3945 21.9984 19.7853 22.0748 20.15 22.225C20.5148 22.3752 20.8461 22.5961 21.125 22.875C21.4039 23.1539 21.6249 23.4853 21.775 23.85C21.9252 24.2147 22.0017 24.6056 22 25V25C22.0017 25.3945 21.9252 25.7853 21.775 26.15C21.6249 26.5148 21.4039 26.8461 21.125 27.125C20.8461 27.4039 20.5148 27.6249 20.15 27.775C19.7853 27.9252 19.3945 28.0017 19 28C18.6056 28.0017 18.2147 27.9252 17.85 27.775C17.4853 27.6249 17.1539 27.4039 16.875 27.125C16.5961 26.8461 16.3752 26.5148 16.225 26.15C16.0748 25.7853 15.9984 25.3945 16 25V22Z"/><path id="Vector_7" stroke-linecap="round" stroke-linejoin="round" stroke-width="2" d="M13 16H16V25C16 25.7956 15.6839 26.5587 15.1213 27.1213C14.5587 27.6839 13.7956 28 13 28V28C12.2044 28 11.4413 27.6839 10.8787 27.1213C10.3161 26.5587 10 25.7956 10 25V19C10 18.2044 10.3161 17.4413 10.8787 16.8787C11.4413 16.3161 12.2044 16 13 16V16Z"/><path id="Vector_8" stroke-linecap="round" stroke-linejoin="round" stroke-width="2" d="M10 16V19C10.0017 19.3945 9.92521 19.7853 9.77503 20.15C9.62486 20.5148 9.40394 20.8461 9.12503 21.125C8.84613 21.4039 8.51475 21.6249 8.15003 21.775C7.78531 21.9252 7.39445 22.0017 7.00003 22V22C6.6056 22.0017 6.21475 21.9252 5.85002 21.775C5.4853 21.6249 5.15392 21.4039 4.87502 21.125C4.59611 20.8461 4.3752 20.5148 4.22502 20.15C4.07484 19.7853 3.99837 19.3945 4.00003 19C3.99837 18.6056 4.07484 18.2147 4.22502 17.85C4.3752 17.4853 4.59611 17.1539 4.87502 16.875C5.15392 16.5961 5.4853 16.3752 5.85002 16.225C6.21475 16.0748 6.6056 15.9984 7.00003 16H10Z"/></g></g></g><defs><clipPath id="clip0_11_3456"><rect width="32" height="32" fill="white" rx="5"/></clipPath></defs></svg>

<svg xmlns="http://www.w3.org/2000/svg" fill="none" stroke="currentColor" aria-hidden="true" viewBox="0 0 32 32"><g stroke="#101828" stroke-linecap="round" stroke-linejoin="round" stroke-width="2" clip-path="url(#a)"><path d="M16 13v3H7a3 3 0 0 1 0-6h6a3 3 0 0 1 3 3v0Z"/><path d="M16 10h-3a2.987 2.987 0 0 1-3-3v0a2.988 2.988 0 0 1 3-3v0a2.987 2.987 0 0 1 3 3v3Z"/><path d="M19 16h-3V7a3 3 0 0 1 6 0v6a3 3 0 0 1-3 3v0Z"/><path d="M22 16v-3a2.988 2.988 0 0 1 3-3v0a2.987 2.987 0 0 1 3 3v0a2.986 2.986 0 0 1-3 3h-3Z"/><path d="M16 19v-3h9a3 3 0 0 1 3 3v0a3 3 0 0 1-3 3h-6a3 3 0 0 1-3-3Z"/><path d="M16 22h3a2.988 2.988 0 0 1 3 3v0a2.986 2.986 0 0 1-3 3 2.986 2.986 0 0 1-3-3v-3Z"/><path d="M13 16h3v9a3 3 0 0 1-3 3v0a3 3 0 0 1-3-3v-6a3 3 0 0 1 3-3v0Z"/><path d="M10 16v3a2.986 2.986 0 0 1-3 3v0a2.986 2.986 0 0 1-3-3 2.987 2.987 0 0 1 3-3h3Z"/></g><defs><clipPath id="a"><rect width="32" height="32" fill="#fff" rx="5"/></clipPath></defs></svg>
